static/images/tech-icons/dark/react.svg

<svg height="37" viewBox="0 0 113 37" width="113" xmlns="http://www.w3.org/2000/svg"><path d="m29.0955882 0h-.1323529c-.7205883.0147-1.4852941.18669-2.2647059.47481-1.5661765.57477-3.2647059 1.641255-4.992647 3.145065-.3382353.294735-.6838235.610785-1.0294118.941535-.2279412-.2205-.4558824-.4263-.6838236-.6321-1.8308823-1.62288-3.6323529-2.764335-5.2794117-3.37953-.8235294-.30723-1.625-.491715-2.375-.509355-.75-.018375-1.4485294.128625-2.0588235.484365-1.19117647.685755-1.8382353 2.036685-2.11764712 3.67647-.28676468 1.64934-.21323528 3.64854.2279412 5.89764.08823532.44835.1911765.90405.30882352 1.37445-.52941172.147-1.0441176.3087-1.52941175.47775-2.14191176.74235-3.87426471 1.68315-5.11838235 2.74155-1.24411765 1.06575-2.0507353 2.30055-2.0507353 3.6456 0 1.38915.84779412 2.6754 2.15882353 3.7926 1.31102941 1.12455 3.14044117 2.12415 5.40000002 2.88855.36029408.12495.72794115.24255 1.11029408.3528-.12499995.4998-.23529413.99225-.32352938 1.47-.41911762 2.22705-.47058825 4.19685-.17647057 5.8065.30147052 1.60965.9705882 2.9253 2.13970582 3.59415 1.1985295.69825 2.7352942.6027 4.3676471.0294 1.625-.5733 3.3970588-1.6611 5.1911765-3.234.2867647-.2499.5735294-.5145.8602941-.7938.375.36015.75.7056 1.125 1.02165 1.7132353 1.47735 3.3897058 2.50635 4.9338235 3.05025s3.0220588.62475 4.1838235-.05145c1.2058824-.69825 1.8897059-2.0727 2.2058824-3.77055.3161764-1.69785.2573529-3.7779-.2058824-6.1152-.0735294-.36015-.1544117-.735-.242647-1.1025.257353-.08085.5147059-.1617.7647058-.24255 2.3235295-.7644 4.2132354-1.7493 5.5735295-2.8665s2.2426471-2.4108 2.2426471-3.82935c0-1.3671-.8455883-2.6019-2.1250001-3.675-1.2794117-1.06575-3.0514705-2.00655-5.2205882-2.7489-.4264706-.147-.867647-.28665-1.3235294-.41895.0735294-.30135.1470588-.6027.2058823-.90405.4926471-2.3961.5808824-4.5276.2941177-6.264405-.2941177-1.73607-.9705882-3.14727-2.1985294-3.85581-.5514707-.32046-1.1838235-.46599-1.8455883-.471135zm-.1249999 1.775025c.4632352-.01176.8308823.0735 1.0882352.224175.5588236.319725 1.0955883 1.179675 1.3382353 2.614395.2426471 1.442805.1764706 3.383205-.2867646 5.617605-.0588236.27195-.1176471.5439-.1838236.8232-1.7058824-.3969-3.5661764-.6909-5.5220588-.87465-1.125-1.6023-2.3014706-3.0723-3.4926471-4.35855.3235294-.303555.6323529-.597555.9485295-.869505 1.6102941-1.397235 3.1617646-2.34906 4.4485293-2.82093.6397059-.235935 1.1985294-.34398 1.6617648-.35574zm-16.8235295.040425h.1764706c.4926471.013965 1.0882353.1323 1.7720588.38661 1.3676471.51009 3.0220589 1.53615 4.7205883 3.05025.2058823.18375.4117647.37485.617647.57624-1.1911764 1.2789-2.375 2.74155-3.5147058 4.34385-1.9485294.18375-3.8088236.47775-5.507353.85995-.1102941-.43365-.2058824-.85995-.2867647-1.27155-.4117647-2.0874-.45588232-3.9102-.2279412-5.25819.2352941-1.347255.7426471-2.148405 1.2647059-2.451225.2426471-.140385.5735294-.22638.9852941-.23667zm8.5294118 5.2773c.8161764.87465 1.625 1.85955 2.4264706 2.9253-.8014706-.03675-1.625-.0588-2.4485294-.0588-.8161765 0-1.625.02205-2.4264706.0588.8088235-1.06575 1.632353-2.0433 2.4485294-2.9253zm33.382353 1.7493v16.8462h2.1029411v-6.69585h3.3602941l4.2941177 6.69585h2.4779412l-4.5514707-6.87225c2.3014707-.2058 4.375-1.8669 4.375-4.90245 0-3.1017-2.1985294-5.0715-5.2867647-5.0715zm53.4411764 1.3083v3.3369h-1.985294v1.66845h1.985294v7.9821c0 1.81545.955882 2.8518 2.720588 2.8518 1.102942 0 1.838236-.33075 2.279412-.78645l-.588235-1.4112c-.220588.2793-.735294.50715-1.25.50715-.808824 0-1.25-.6615-1.25-1.56555v-7.57785h2.5v-1.66845h-2.5v-3.3369zm-51.3382353.5586h4.4191177c1.992647 0 3.3602941 1.31565 3.3602941 3.2046 0 1.8963-1.3676471 3.234-3.3602941 3.234h-4.4191177zm-35.5073529 1.0143c1.2867647 0 2.5441176.05145 3.7647058.13965.6911766 1.0143 1.3602941 2.08005 2 3.18255s1.2352942 2.21235 1.7720589 3.3075c-.5367648 1.10985-1.125 2.2344-1.7720589 3.34425-.6397058 1.10985-1.3014705 2.1756-1.9852941 3.19725-1.2279411.0882-2.492647.1323-3.7794117.1323-1.2720588 0-2.5220589-.0441-3.7426471-.1176-.6911765-1.02165-1.3676471-2.0874-2.0147059-3.19725s-1.2352941-2.22705-1.7647059-3.32955c.5294118-1.10985 1.1176471-2.2197 1.757353-3.32955s1.3161764-2.1756 2.0073529-3.1899c1.2205882-.0882 2.4779412-.13965 3.757353-.13965zm-6.0294118.3675c-.4338236.6762-.8529412 1.3671-1.2647059 2.08005s-.7941176 1.4259-1.1617647 2.1315c-.5220588-1.2201-.9558823-2.41815-1.3161765-3.56475 1.1764706-.2646 2.4264706-.47775 3.7426471-.6468zm12.0588235.00735c1.3235295.1617 2.5882354.38955 3.7647059.65415-.3529412 1.1466-.8014705 2.3373-1.3235294 3.5574-.375-.71295-.7720588-1.43325-1.1838235-2.1462-.4117647-.7056-.8308824-1.3965-1.257353-2.06535zm-17.51470585 1.0731c.51470587 1.66845 1.19117645 3.4251 2.01470585 5.21115-.8382353 1.81545-1.52205883 3.59415-2.04411763 5.28465-.34558822-.09555-.68382352-.2058-1.0147059-.31605-2.08823526-.71295-3.73676468-1.6317-4.81838232-2.5578-1.08235295-.9261-1.54191177-1.8228-1.54191177-2.4549 0-.61005.41985294-1.43325 1.43308824-2.30055 1.0125-.8673 2.56691176-1.7346 4.55220585-2.4255.4485294-.15435.92647065-.30135 1.41911768-.441zm64.43382355.0147c-3.4926471 0-6.0220589 2.8518-6.0220589 6.38715 0 3.81465 2.6029412 6.41655 6.1691177 6.41655 1.985294 0 3.6764705-.65415 4.8529415-1.8669l-.8823533-1.24215c-.9558825.9849-2.3529412 1.5435-3.75 1.5435-2.625 0-4.2426471-1.91835-4.3897059-4.2189h9.8308824v-.47775c0-3.66765-2.1323527-6.5415-5.8088235-6.5415zm13.088235 0c-1.9852942 0-3.5294115.65415-4.852941 2.02125l.8823533 1.3083c1.102941-1.1613 2.2794112-1.6905 3.75-1.6905 1.7647057 0 3.0882353.93345 3.0882353 2.57985v2.19765c-1.0294118-1.13925-2.4264706-1.66845-4.0441178-1.66845-2.0588235 0-4.2647062 1.28625-4.2647062 4.0131 0 2.65335 2.2058827 4.0425 4.2647062 4.0425 1.6176472 0 3.014706-.58065 4.0441178-1.6905v1.38915h1.8382349v-8.38635c0-2.9547-2.1323527-4.116-4.7058825-4.116zm13.5294118 0c-3.6029413 0-6.102941 2.7783-6.102941 6.38715 0 3.63825 2.4999997 6.41655 6.102941 6.41655 2.205882 0 3.529412-.9114 4.485294-2.12415l-1.25-1.1613c-.808823 1.0878-1.838235 1.59495-3.088235 1.59495-2.6470585 0-4.2647058-2.02125-4.2647058-4.72605s1.6176473-4.69665 4.2647058-4.69665c1.25 0 2.279412.47775 3.088235 1.5876l1.25-1.1613c-.955882-1.21275-2.279412-2.1168-4.485294-2.1168zm-68.0514703.00735c.4191176.12495.8308823.25725 1.2205881.38955 2.014706.6909 3.6176472 1.5582 4.6691177 2.4402 1.0441177.87465 1.4852941 1.71255 1.4852941 2.31525 0 .63945-.4705882 1.53615-1.5955882 2.46225-1.1323529.9261-2.8455882 1.84485-5.007353 2.56515-.2279411.0735-.4558823.147-.6911764.21315-.5294118-1.6758-1.242647-3.4398-2.0955882-5.22585.8235294-1.764 1.5-3.4986 2.0147059-5.1597zm-11.5147059 1.46265c-2.0333442.0028339-3.6809885 1.6498192-3.6838236 3.68235-.0012195 2.0354005 1.6476102 3.6868604 3.6838236 3.6897.9791403.0005854 1.9183458-.3879617 2.6107026-1.0800416.6923569-.6920799 1.0810595-1.6309098 1.0804738-2.6096584-.0028407-2.0353989-1.6549615-3.6835691-3.6911764-3.68235zm52.875.09555c2.7941177 0 3.9705879 2.2491 4.0441179 4.06455h-7.9926474c.0955883-1.8669 1.3897059-4.06455 3.9485295-4.06455zm12.6470589 4.5423c1.3235295 0 2.647059.50715 3.382353 1.5141v2.30055c-.735294 1.0143-2.0588235 1.5141-3.382353 1.5141-1.7647057 0-3.014706-1.10985-3.014706-2.646 0-1.5729 1.2500003-2.68275 3.014706-2.68275zm-57.0294119 1.1025c.5441177 1.2495 1.0147059 2.4696 1.382353 3.6309-1.1985295.27195-2.4926471.49245-3.8455883.65415.4264706-.68355.8529412-1.38915 1.2647059-2.1021.4191176-.72765.8161765-1.4553 1.1985294-2.18295zm-16.9485294.0588c.3676471.71295.7573529 1.4259 1.1691176 2.13885.4191177.7203.8529412 1.4259 1.2941177 2.1168-1.3382353-.147-2.6176471-.3528-3.8014706-.61005.3602941-1.16865.8088235-2.38875 1.3382353-3.6456zm18.8161765 5.26995c.0882352.3381.1617647.6762.2279411.9996.4264706 2.1609.4558824 4.04985.1985294 5.44635-.2573529 1.40385-.8088234 2.2491-1.3529411 2.56515-.5294118.3087-1.4558824.36015-2.7132353-.08085-1.257353-.44835-2.7867647-1.35975-4.375-2.72685-.3455882-.294-.6911765-.61005-1.0367647-.94815 1.1838235-1.2936 2.3455882-2.7783 3.4632353-4.3953 1.9852941-.1764 3.867647-.46305 5.5882353-.85995zm-20.6323529.08085c1.7205882.3822 3.5955882.6468 5.5661764.80115 1.1470588 1.617 2.3455883 3.09435 3.5441177 4.3806-.2647059.25725-.5220589.4998-.7867647.72765-1.6544118 1.44795-3.2794118 2.41815-4.6176471 2.88855-1.3455882.47775-2.3529412.4263-2.8970589.11025-.5294117-.30135-1.0367646-1.08045-1.2867646-2.38875-.24264713-1.3083-.21323535-3.087.1764706-5.15235.0808823-.441.1838235-.8967.3014706-1.3671zm12.7647058.9261c-.8014706 1.0878-1.6102941 2.0874-2.4191176 2.9841-.8308824-.8967-1.6691177-1.8963-2.4852942-2.9694.7941177.0294 1.5955883.0441 2.4117648.0441.8382352 0 1.6691176-.02205 2.492647-.0588z"/></svg>

<?xml version="1.0" encoding="UTF-8"?>
<svg width="113px" height="37px" viewBox="0 0 113 37" version="1.1" xmlns="http://www.w3.org/2000/svg" xmlns:xlink="http://www.w3.org/1999/xlink">
    <!-- Generator: Sketch 50.2 (55047) - http://www.bohemiancoding.com/sketch -->
    <title>React-225x94-white</title>
    <desc>Created with Sketch.</desc>
    <defs></defs>
    <g id="UI-Design-(Teal)" stroke="none" stroke-width="1" fill="none" fill-rule="evenodd">
        <g id="Services-Teal-v2" transform="translate(-264.000000, -806.000000)" fill="#000" fill-rule="nonzero">
            <g id="tech-logos" transform="translate(264.000000, 790.000000)">
                <g id="Group-5-Copy-2" transform="translate(0.000000, 16.000000)">
                    <g id="Group-5-Copy">
                        <g id="React-225x94-white">
                            <path d="M29.0955882,0 L28.9632353,0 C28.242647,0.0147 27.4779412,0.18669 26.6985294,0.47481 C25.1323529,1.04958 23.4338235,2.116065 21.7058824,3.619875 C21.3676471,3.91461 21.0220589,4.23066 20.6764706,4.56141 C20.4485294,4.34091 20.2205882,4.13511 19.992647,3.92931 C18.1617647,2.30643 16.3602941,1.164975 14.7132353,0.54978 C13.8897059,0.24255 13.0882353,0.058065 12.3382353,0.040425 C11.5882353,0.02205 10.8897059,0.16905 10.2794118,0.52479 C9.08823533,1.210545 8.4411765,2.561475 8.16176468,4.20126 C7.875,5.8506 7.9485294,7.8498 8.38970588,10.0989 C8.4779412,10.54725 8.58088238,11.00295 8.6985294,11.47335 C8.16911768,11.62035 7.6544118,11.78205 7.16911765,11.9511 C5.02720589,12.69345 3.29485294,13.63425 2.0507353,14.69265 C0.80661765,15.7584 5.32907052e-15,16.9932 5.32907052e-15,18.33825 C5.32907052e-15,19.7274 0.84779412,21.01365 2.15882353,22.13085 C3.46985294,23.2554 5.2992647,24.255 7.55882355,25.0194 C7.91911763,25.14435 8.2867647,25.26195 8.66911763,25.3722 C8.54411768,25.872 8.4338235,26.36445 8.34558825,26.8422 C7.92647063,29.06925 7.875,31.03905 8.16911768,32.6487 C8.4705882,34.25835 9.13970588,35.574 10.3088235,36.24285 C11.507353,36.9411 13.0441177,36.84555 14.6764706,36.27225 C16.3014706,35.69895 18.0735294,34.61115 19.8676471,33.03825 C20.1544118,32.78835 20.4411765,32.52375 20.7279412,32.24445 C21.1029412,32.6046 21.4779412,32.95005 21.8529412,33.2661 C23.5661765,34.74345 25.242647,35.77245 26.7867647,36.31635 C28.3308824,36.86025 29.8088235,36.9411 30.9705882,36.2649 C32.1764706,35.56665 32.8602941,34.1922 33.1764706,32.49435 C33.492647,30.7965 33.4338235,28.71645 32.9705882,26.37915 C32.8970588,26.019 32.8161765,25.64415 32.7279412,25.27665 C32.9852942,25.1958 33.2426471,25.11495 33.492647,25.0341 C35.8161765,24.2697 37.7058824,23.2848 39.0661765,22.1676 C40.4264706,21.0504 41.3088236,19.7568 41.3088236,18.33825 C41.3088236,16.97115 40.4632353,15.73635 39.1838235,14.66325 C37.9044118,13.5975 36.132353,12.6567 33.9632353,11.91435 C33.5367647,11.76735 33.0955883,11.6277 32.6397059,11.4954 C32.7132353,11.19405 32.7867647,10.8927 32.8455882,10.59135 C33.3382353,8.19525 33.4264706,6.06375 33.1397059,4.326945 C32.8455882,2.590875 32.1691177,1.179675 30.9411765,0.471135 C30.3897058,0.150675 29.757353,0.005145 29.0955882,0 Z M28.9705883,1.775025 C29.4338235,1.763265 29.8014706,1.848525 30.0588235,1.9992 C30.6176471,2.318925 31.1544118,3.178875 31.3970588,4.613595 C31.6397059,6.0564 31.5735294,7.9968 31.1102942,10.2312 C31.0514706,10.50315 30.9926471,10.7751 30.9264706,11.0544 C29.2205882,10.6575 27.3602942,10.3635 25.4044118,10.17975 C24.2794118,8.57745 23.1029412,7.10745 21.9117647,5.8212 C22.2352941,5.517645 22.5441176,5.223645 22.8602942,4.951695 C24.4705883,3.55446 26.0220588,2.602635 27.3088235,2.130765 C27.9485294,1.89483 28.5073529,1.786785 28.9705883,1.775025 Z M12.1470588,1.81545 L12.3235294,1.81545 C12.8161765,1.829415 13.4117647,1.94775 14.0955882,2.20206 C15.4632353,2.71215 17.1176471,3.73821 18.8161765,5.25231 C19.0220588,5.43606 19.2279412,5.62716 19.4338235,5.82855 C18.2426471,7.10745 17.0588235,8.5701 15.9191177,10.1724 C13.9705883,10.35615 12.1102941,10.65015 10.4117647,11.03235 C10.3014706,10.5987 10.2058823,10.1724 10.125,9.7608 C9.7132353,7.6734 9.66911768,5.8506 9.8970588,4.50261 C10.1323529,3.155355 10.6397059,2.354205 11.1617647,2.051385 C11.4044118,1.911 11.7352941,1.825005 12.1470588,1.814715 L12.1470588,1.81545 Z M20.6764706,7.09275 C21.492647,7.9674 22.3014706,8.9523 23.1029412,10.01805 C22.3014706,9.9813 21.4779412,9.95925 20.6544118,9.95925 C19.8382353,9.95925 19.0294118,9.9813 18.2279412,10.01805 C19.0367647,8.9523 19.8602942,7.97475 20.6764706,7.09275 Z M54.0588236,8.84205 L54.0588236,25.68825 L56.1617647,25.68825 L56.1617647,18.9924 L59.5220588,18.9924 L63.8161765,25.68825 L66.2941177,25.68825 L61.742647,18.816 C64.0441177,18.6102 66.117647,16.9491 66.117647,13.91355 C66.117647,10.81185 63.9191176,8.84205 60.8308823,8.84205 L54.0588236,8.84205 Z M107.5,10.15035 L107.5,13.48725 L105.514706,13.48725 L105.514706,15.1557 L107.5,15.1557 L107.5,23.1378 C107.5,24.95325 108.455882,25.9896 110.220588,25.9896 C111.32353,25.9896 112.058824,25.65885 112.5,25.20315 L111.911765,23.79195 C111.691177,24.07125 111.176471,24.2991 110.661765,24.2991 C109.852941,24.2991 109.411765,23.6376 109.411765,22.73355 L109.411765,15.1557 L111.911765,15.1557 L111.911765,13.48725 L109.411765,13.48725 L109.411765,10.15035 L107.5,10.15035 Z M56.1617647,10.70895 L60.5808824,10.70895 C62.5735294,10.70895 63.9411765,12.0246 63.9411765,13.91355 C63.9411765,15.80985 62.5735294,17.14755 60.5808824,17.14755 L56.1617647,17.14755 L56.1617647,10.70895 Z M20.6544118,11.72325 C21.9411765,11.72325 23.1985294,11.7747 24.4191176,11.8629 C25.1102942,12.8772 25.7794117,13.94295 26.4191176,15.04545 C27.0588235,16.14795 27.6544118,17.2578 28.1911765,18.35295 C27.6544117,19.4628 27.0661765,20.58735 26.4191176,21.6972 C25.7794118,22.80705 25.1176471,23.8728 24.4338235,24.89445 C23.2058824,24.98265 21.9411765,25.02675 20.6544118,25.02675 C19.382353,25.02675 18.1323529,24.98265 16.9117647,24.90915 C16.2205882,23.8875 15.5441176,22.82175 14.8970588,21.7119 C14.25,20.60205 13.6617647,19.48485 13.1323529,18.38235 C13.6617647,17.2725 14.25,16.16265 14.8897059,15.0528 C15.5294118,13.94295 16.2058823,12.8772 16.8970588,11.8629 C18.117647,11.7747 19.375,11.72325 20.6544118,11.72325 Z M14.625,12.09075 C14.1911764,12.76695 13.7720588,13.45785 13.3602941,14.1708 C12.9485294,14.88375 12.5661765,15.5967 12.1985294,16.3023 C11.6764706,15.0822 11.2426471,13.88415 10.8823529,12.73755 C12.0588235,12.47295 13.3088235,12.2598 14.625,12.09075 Z M26.6838235,12.0981 C28.007353,12.2598 29.2720589,12.48765 30.4485294,12.75225 C30.0955882,13.89885 29.6470589,15.08955 29.125,16.30965 C28.75,15.5967 28.3529412,14.8764 27.9411765,14.16345 C27.5294118,13.45785 27.1102941,12.76695 26.6838235,12.0981 Z M9.16911765,13.1712 C9.68382352,14.83965 10.3602941,16.5963 11.1838235,18.38235 C10.3455882,20.1978 9.66176467,21.9765 9.13970587,23.667 C8.79411765,23.57145 8.45588235,23.4612 8.12499997,23.35095 C6.03676471,22.638 4.38823529,21.71925 3.30661765,20.79315 C2.2242647,19.86705 1.76470588,18.97035 1.76470588,18.33825 C1.76470588,17.7282 2.18455882,16.905 3.19779412,16.0377 C4.21029412,15.1704 5.76470588,14.3031 7.74999997,13.6122 C8.19852937,13.45785 8.67647062,13.31085 9.16911765,13.1712 Z M73.6029412,13.1859 C70.1102941,13.1859 67.5808823,16.0377 67.5808823,19.57305 C67.5808823,23.3877 70.1838235,25.9896 73.75,25.9896 C75.735294,25.9896 77.4264705,25.33545 78.6029415,24.1227 L77.7205882,22.88055 C76.7647057,23.86545 75.367647,24.42405 73.9705882,24.42405 C71.3455882,24.42405 69.7279411,22.5057 69.5808823,20.20515 L79.4117647,20.20515 L79.4117647,19.7274 C79.4117647,16.05975 77.279412,13.1859 73.6029412,13.1859 Z M86.6911762,13.1859 C84.705882,13.1859 83.1617647,13.84005 81.8382352,15.20715 L82.7205885,16.51545 C83.8235295,15.35415 84.9999997,14.82495 86.4705885,14.82495 C88.2352942,14.82495 89.5588238,15.7584 89.5588238,17.4048 L89.5588238,19.60245 C88.529412,18.4632 87.1323532,17.934 85.514706,17.934 C83.4558825,17.934 81.2499998,19.22025 81.2499998,21.9471 C81.2499998,24.60045 83.4558825,25.9896 85.514706,25.9896 C87.1323532,25.9896 88.529412,25.40895 89.5588238,24.2991 L89.5588238,25.68825 L91.3970587,25.68825 L91.3970587,17.3019 C91.3970587,14.3472 89.264706,13.1859 86.6911762,13.1859 Z M100.220588,13.1859 C96.6176467,13.1859 94.117647,15.9642 94.117647,19.57305 C94.117647,23.2113 96.6176467,25.9896 100.220588,25.9896 C102.42647,25.9896 103.75,25.0782 104.705882,23.86545 L103.455882,22.70415 C102.647059,23.79195 101.617647,24.2991 100.367647,24.2991 C97.7205885,24.2991 96.1029412,22.27785 96.1029412,19.57305 C96.1029412,16.86825 97.7205885,14.8764 100.367647,14.8764 C101.617647,14.8764 102.647059,15.35415 103.455882,16.464 L104.705882,15.3027 C103.75,14.08995 102.42647,13.1859 100.220588,13.1859 Z M32.1691177,13.19325 C32.5882353,13.3182 33,13.4505 33.3897058,13.5828 C35.4044118,14.2737 37.007353,15.141 38.0588235,16.023 C39.1029412,16.89765 39.5441176,17.73555 39.5441176,18.33825 C39.5441176,18.9777 39.0735294,19.8744 37.9485294,20.8005 C36.8161765,21.7266 35.1029412,22.64535 32.9411764,23.36565 C32.7132353,23.43915 32.4852941,23.51265 32.25,23.5788 C31.7205882,21.903 31.007353,20.139 30.1544118,18.35295 C30.9779412,16.58895 31.6544118,14.85435 32.1691177,13.19325 Z M20.6544118,14.6559 C18.6210676,14.6587339 16.9734233,16.3057192 16.9705882,18.33825 C16.9693687,20.3736505 18.6181984,22.0251104 20.6544118,22.02795 C21.6335521,22.0285354 22.5727576,21.6399883 23.2651144,20.9479084 C23.9574713,20.2558285 24.3461739,19.3169986 24.3455882,18.33825 C24.3427475,16.3028511 22.6906267,14.6546809 20.6544118,14.6559 Z M73.5294118,14.75145 C76.3235295,14.75145 77.4999997,17.00055 77.5735297,18.816 L69.5808823,18.816 C69.6764706,16.9491 70.9705882,14.75145 73.5294118,14.75145 Z M86.1764707,19.29375 C87.5000002,19.29375 88.8235297,19.8009 89.5588237,20.80785 L89.5588237,23.1084 C88.8235297,24.1227 87.5000002,24.6225 86.1764707,24.6225 C84.411765,24.6225 83.1617647,23.51265 83.1617647,21.9765 C83.1617647,20.4036 84.411765,19.29375 86.1764707,19.29375 Z M29.1470588,20.39625 C29.6911765,21.64575 30.1617647,22.86585 30.5294118,24.02715 C29.3308823,24.2991 28.0367647,24.5196 26.6838235,24.6813 C27.1102941,23.99775 27.5367647,23.29215 27.9485294,22.5792 C28.367647,21.85155 28.7647059,21.1239 29.1470588,20.39625 Z M12.1985294,20.45505 C12.5661765,21.168 12.9558823,21.88095 13.367647,22.5939 C13.7867647,23.3142 14.2205882,24.0198 14.6617647,24.7107 C13.3235294,24.5637 12.0441176,24.3579 10.8602941,24.10065 C11.2205882,22.932 11.6691176,21.7119 12.1985294,20.45505 Z M31.0147059,25.725 C31.1029411,26.0631 31.1764706,26.4012 31.242647,26.7246 C31.6691176,28.8855 31.6985294,30.77445 31.4411764,32.17095 C31.1838235,33.5748 30.632353,34.42005 30.0882353,34.7361 C29.5588235,35.0448 28.6323529,35.09625 27.375,34.65525 C26.117647,34.2069 24.5882353,33.2955 23,31.9284 C22.6544118,31.6344 22.3088235,31.31835 21.9632353,30.98025 C23.1470588,29.68665 24.3088235,28.20195 25.4264706,26.58495 C27.4117647,26.40855 29.2941176,26.1219 31.0147059,25.725 Z M10.382353,25.80585 C12.1029412,26.18805 13.9779412,26.45265 15.9485294,26.607 C17.0955882,28.224 18.2941177,29.70135 19.4926471,30.9876 C19.2279412,31.24485 18.9705882,31.4874 18.7058824,31.71525 C17.0514706,33.1632 15.4264706,34.1334 14.0882353,34.6038 C12.7426471,35.08155 11.7352941,35.0301 11.1911764,34.71405 C10.6617647,34.4127 10.1544118,33.6336 9.9044118,32.3253 C9.66176467,31.017 9.69117645,29.2383 10.0808824,27.17295 C10.1617647,26.73195 10.2647059,26.27625 10.382353,25.80585 Z M23.1470588,26.73195 C22.3455882,27.81975 21.5367647,28.81935 20.7279412,29.71605 C19.8970588,28.81935 19.0588235,27.81975 18.242647,26.74665 C19.0367647,26.77605 19.8382353,26.79075 20.6544118,26.79075 C21.492647,26.79075 22.3235294,26.7687 23.1470588,26.73195 Z" id="Shape"></path>
                        </g>
                    </g>
                </g>
            </g>
        </g>
    </g>
</svg>
